!!!OTL: 129c. Der Zimmergesell gehangen.
!!!ODT: 1880
!!!ARE: Europa, Mitteleuropa, Deutschland, Taunus, Wuerges
!!!SCT: E0129A
!!!TXL: @@DE
!!!YEM: Copyright 1995, estate of Helmut Schaffrath.
**kern	**text
*ICvox	*
*M6/8	*
*k[b-]	*
*F:	*
!LO:TX:a:t=Langſam.	!
!LO:TX:a:t=Mel. aus dem Taunus (Würges) 1880.	!
{8c	War
=1	=1
4f	einſt
8f	ein
8aL	jung,
8gJ	.
8f	jung
=2	=2
8.g	Ʒim-
16g	-mer-
8g	-ge-
8b-L	-ſell,
8aJ}	.
{8g	der
=3	=3
8.a	hat-
16b-	-te
8cc	ʒu
8cc	bau-
8b-	-en
8a	ein
=4	=4
4.g	Schloß,
4r}	.
{8dd	ein
=5	=5
4dd	Schloß
8b-	für
8b-L	den
8ccJ	.
8dd	Mark-
=6	=6
(4cc	-gra-
8a)	.
4a}	-fen
{8cc	von
=7	=7
8ccL	Gold
8ddJ	.
8cc	und
8b-L	Mar-
8aJ	.
8g	-mel-
=8	=8
[4.cc	-ſtein.
4cc]}	.
{8dd	ein
=9	=9
4dd	Schloß
8b-	für
8b-L	den
8ccJ	.
8dd	Mark-
=10	=10
(4cc	-gra-
8a)	.
4a}	-fen
{8cc	von
=11	=11
8ccL	Gold
8ddJ	.
8cc	und
8b-L	Mar-
8aJ	.
8g	-mel-
=12	=12
4.f	-ſtein.
4r}	.
==	==
!!!AGN: erzaehlendes Volks - Lied, Schalk -, Schelmen - Lied, Liebe; Handwerk, Ballade ?
!!!ONB: ESAC (Essen Associative Code) Database: ERK1
!!!AMT: compound duple
!!!AIN: vox
!!!EED: Helmut Schaffrath
!!!EEV: 1.0
!!!GTL: Schalks- und Schlemenlieder (Liebesabenteuer und betrogene Liebe)
!!!URL-scan: https://rosdok.uni-rostock.de/mcrviewer/recordIdentifier/rosdok_ppn745146120/iview2/phys_0512.iview2?x=-725.3371323957142&y=2172.8338515060022&scale=0.40883570902695276&rotation=0&layout=singlePageLayout
!!!ENC: Anna Maria Matuszewska
!!!EEV: 2024/03/12
*-	*-
